!!!!SEGMENT: pl-sa--548-a-ix-28--007_anonim--polonez.krn
!!!cenid: 18xx:430
!!!COM: Anonim
!!!COM-rismid: pe30004985
!!!CDT:
!!!CNT:
!!!OTL: Polonez
!!!PDT:
!!!AGN: Secular; Polonaise
!!!SMS-siglum: PL-SA
!!!SMS-shelfmark: 548/A IX 28
!!!SMS-shelfwork: 007 W
!!!SMS-variant:
!!!SMS-altvar:
!!!NIFC-rismid: 1001068957
!!!URL-scan: http://bc.bdsandomierz.pl/dlibra/publication/1440/edition/1408/content
!!!ONB-nifc: Str. 11 (s. 4) – str. 12 (s. 4)
!!!key:
**kern	**kern
*part2	*part1
*staff2	*staff1
*Iempty	*Ipiano
*	*I"Piano
*	*I'P-no
*clefF4	*clefG2
*k[f#]	*k[f#]
*G:	*G:
*M3/4	*M3/4
*>[A,B,A,C,C]	*>[A,B,A,C,C]
=1	=1
*>A	*>A
*4\ 8\ 16\ right	*4\ 8\ 16\ right
!	!LO:TX:a:i:t=Poloneſ
8BL 8G\	8b\L
8d\J	8bt\J
*rep	*
8BL 8G\	4.dd\
8d\J	.
*Xrep	*
*rep	*
8BL 8G\	.
8d\J	16cc\LL
.	16b\JJ
*Xrep	*
=2	=2
8cL 8A\	16b\LL
.	16a\JJ
8d\J	4a/
*rep	*
8cL 8A\	.
8d\J	16b/LL
.	16cc/JJ
*Xrep	*
*rep	*
8cL 8A\	16b/LL
.	16a/
8d\J	16g/
.	16f#/JJ
*Xrep	*
=3	=3
8GL 8E\	16e/LL
.	16g/J
8B\J	8gT</J
*rep	*
8GL 8E\	4.b/
8B\J	.
*Xrep	*
*rep	*
8GL 8E\	.
8B\J	16g/LL
.	16e/JJ
*Xrep	*
=4	=4
8F#L 8D#X 8BB\	8.f#/L
8B\J	.
.	16d#X/Jk
!	!LO:TX:a:t=P:problem:niezrozumiała wysokość dźwięku
4F# 4D# 4BB\	8B/L
.	8b/
4r	8cc/
.	8cc#X/J
=5	=5
16G\LL	8dd\L
16d\	.
16B\	8ddsS\J
16d\JJ	.
*rep	*
16G\LL	8bb\L
16d\	.
16B\	8gg\
16d\JJ	.
*Xrep	*
*rep	*
16G\LL	8dd\
16d\	.
16B\	8b\J
16d\JJ	.
*Xrep	*
!LO:LB:g=original	!LO:LB:g=original
=6	=6
16A\LL	8cc\L
16d\	.
16c\	8ccsS\J
16d\JJ	.
*rep	*
16A\LL	8.aa\L
16d\	.
16c\	.
16d\JJ	16gg\Jk
*Xrep	*
*rep	*
16A\LL	16ff#\LL
16d\	16ee\
16c\	16dd\
16d\JJ	16cc\JJ
*Xrep	*
=7	=7
8GL 8GG\	16b\LL
.	16dd\
8dJ 8B 8G\	16gg\
.	16bb\JJ
8dL 8B 8G\	8ddd\L
8dJ 8B 8G\	8ddJ 8b\
8dL 8c 8A\	8eeL 8cc\
8dJ 8c 8A\	8ff#J 8a\
=8	=8
8BL 8G\	8gg\L
8d\J	8bb\J
8AL 8F# 8D\	16aa\LL
.	16gg\
8c\J	16ff#\
.	16aa\JJ
4B 4G\	4gg\
!LO:PB:g=original	!LO:PB:g=original
=9||	=9||
*>B	*>B
8cL 8A 8F#\	8aa\L
.	8qbb/
8D\J	16aa\L
.	16gg#X\JJ
*rep	*
8cL 8A 8F#\	8aa\L
.	8qbb/
8D\J	16aa\L
.	16gg#\JJ
*Xrep	*
*rep	*
8cL 8A 8F#\	16aa\LL
.	16ccc\
8D\J	16bb\
.	16aa\JJ
*Xrep	*
=10	=10
8BL 8G\	8bb\L
8D\J	16bb\L
.	16aa\JJ
*rep	*
8BL 8G\	16gg\LL
.	16ff#\
8D\J	16gg\
.	16aa\JJ
*Xrep	*
*rep	*
8BL 8G\	8.bb\L
8D\J	.
.	16gg\Jk
*Xrep	*
=11	=11
8AL 8F#\	8ff#\L
8D\J	16ff#\L
.	16ee\JJ
*rep	*
8AL 8F#\	16dd\LL
.	16ee\
8D\J	16ff#\
.	16gg\JJ
*Xrep	*
*rep	*
8AL 8F#\	8.aa\L
8D\J	.
.	16gg\Jk
*Xrep	*
=12	=12
8BL 8G\	16gg\LL
.	16ff#\
8D\J	16gg\
.	16dd\JJ
*rep	*
8BL 8G\	16cc\LL
.	16b\
8D\J	16a\
.	16g\JJ
*Xrep	*
!LO:TX:t=P:problem:mixed beam	!
8d\L	4dd\
!	!LO:TX:b:i:t=Polonez Da Capo
8D/J	.
!LO:LB:g=original	!LO:LB:g=original
=13||	=13||
*>C	*>C
*M3/4	*M3/4
8GL 8GG\	16bb\LL
.	16aa#X\
8BJ 8G 8D\	16bb\
.	16ff#\JJ
*rep	*
8GL 8GG\	16gg\LL
.	16ff#\
8BJ 8G 8D\	16gg\
.	16dd\JJ
*Xrep	*
*rep	*
8GL 8GG\	16b\LL
.	16dd\
8BJ 8G 8D\	16gg\
.	16bb\JJ
*Xrep	*
=14	=14
8D\L	16ccc\LL
.	16bb\
8cJ 8A 8F#\	16ccc\
.	16aa\JJ
8cL 8A 8F#\	16ff#\LL
.	16dd\
8cJ 8A 8F#\	16ff#\
.	16aa\JJ
*rep	*
8cL 8A 8F#\	8.ddd\L
8cJ 8A 8F#\	.
.	16ccc\Jk
*Xrep	*
=15	=15
8GL 8GG\	16bb\LL
.	16aa#X\
8BJ 8G 8D\	16bb\
.	16ff#\JJ
*rep	*
8GL 8GG\	16gg\LL
.	16ff#\
8BJ 8G 8D\	16gg\
.	16dd\JJ
*Xrep	*
*rep	*
8GL 8GG\	16b\LL
.	16dd\
8BJ 8G 8D\	16gg\
.	16bb\JJ
*Xrep	*
!LO:LB:g=original	!LO:LB:g=original
=16	=16
8D\L	16ddd\LL
.	16cccn\
8dJ 8c 8A\	16aa\
.	16ff#\JJ
*rep	*
8D\L	16dd\LL
.	16ee\
8dJ 8c 8A\	16ff#\
*Xrep	*
.	16dd\JJ
4B 4G\	4gg\
=17||	=17||
8cL 8A 8F#\	8ff#\L
.	8qgg/
8D\J	16ff#\L
.	16ee\JJ
*rep	*
8cL 8A 8F#\	16dd\LL
.	16ee\
8D\J	16ff#\
.	16gg\JJ
*Xrep	*
*rep	*
8cL 8A 8F#\	8.aa\L
8D\J	.
.	16ff#\Jk
*Xrep	*
=18	=18
8BL 8G\	16gg\LL
!	!LO:TUP:a
.	48aa\L
.	48gg\
.	48ff#\J
8D\J	16gg\
.	16aa\JJ
*rep	*
8BL 8G\	16bb\LL
*	*Xtuplet
.	48ccc\L
.	48bb\
.	48aa\J
8D\J	16bb\
.	16ccc\JJ
*Xrep	*
*rep	*
8BL 8G\	16ccc#X\LL
.	16ddd\
8D\J	16bb\
.	16gg\JJ
*Xrep	*
=19	=19
8eL 8c 8A\	16ff#\LL
.	16ee\
8eJ 8c 8A\	16dd#X\
.	16ee\JJ
*rep	*
8eL 8c 8A\	16bb\LL
.	16aa\
8eJ 8c 8A\	16gg#X\
.	16aa\JJ
*Xrep	*
*rep	*
8eL 8c 8A\	16ddd\LL
.	16cccn\
8eJ 8c 8A\	16bb\
.	16aa\JJ
*Xrep	*
!LO:LB:g=original	!LO:LB:g=original
=20	=20
*2\right	*
2d 2B 2G\	16gg\LL
.	16ff#\
.	16.bb\
.	32aa\JJk
.	16gg\LL
.	16ff#\
.	16ee\
.	16dd\JJ
4r	16cc#X\LL
.	16dd\
.	16ccn\
!	!LO:TX:b:i:t=Trio Da Capo
.	16a\JJ
==	==
*-	*-
!!!system-decoration: (s1,s2)
!!!RDF**kern: < = below
!!!AIN: 1 empty 1 piano
!!!ENC: Marta Lawrence
!!!END: 2020-11-23
!!!ENC: Marta Chmielewska
!!!END: 2020-06-15
